src/icons/outline/symbols/attachment.svg

<svg width="24" height="24" viewBox="0 0 24 24" fill="none" xmlns="http://www.w3.org/2000/svg">
<g clip-path="url(#clip0_402_232)">
<path d="M7.87468 23C6.11793 23 4.35103 22.3439 3.01062 21.0318C0.329794 18.4075 0.329794 14.143 3.01062 11.5187L11.2765 3.42711C13.1145 1.56824 16.1609 1.51853 18.0699 3.31777C19.979 5.117 20.0298 8.1091 18.1918 9.97792L9.81422 18.1788C9.27602 18.6858 8.55504 18.9741 7.84422 18.9443C7.11309 18.9343 6.42257 18.6361 5.91484 18.1192C4.87907 17.0754 4.87907 15.4253 5.91484 14.3816L14.1909 6.28004C14.4549 6.02159 14.8915 6.01165 15.1657 6.28004C15.4297 6.5385 15.4297 6.96594 15.1657 7.23433L6.89984 15.3259C6.39211 15.8428 6.39211 16.6679 6.89984 17.1848C7.1537 17.4432 7.49896 17.5924 7.86453 17.5924H7.88484C8.24025 17.5924 8.58551 17.4631 8.83937 17.2146L17.1966 9.04351C18.5066 7.71148 18.4761 5.57427 17.1154 4.29194C15.7547 2.99967 13.5714 3.03943 12.2513 4.37146L3.98546 12.463C1.84283 14.5605 1.84283 17.98 3.98546 20.0775C6.12809 22.1749 9.62128 22.1749 11.7639 20.0775L21.8271 10.2264C22.0912 9.96798 22.5278 9.95804 22.802 10.2264C23.066 10.4849 23.066 10.9123 22.802 11.1807L12.7387 21.0318C11.3983 22.3439 9.64159 23 7.87468 23Z" fill="#212121"/>
</g>
<defs>
<clipPath id="clip0_402_232">
<rect width="24" height="24" fill="white"/>
</clipPath>
</defs>
</svg>

<svg xmlns="http://www.w3.org/2000/svg" width="24" height="24" fill="none" viewBox="0 0 24 24"><g clip-path="url(#a)"><path fill="currentColor" d="M7.875 23a6.94 6.94 0 0 1-4.864-1.968 6.63 6.63 0 0 1 0-9.513l8.266-8.092c1.838-1.859 4.884-1.908 6.793-.11a4.65 4.65 0 0 1 .122 6.66L9.814 18.18c-.538.507-1.259.795-1.97.765a2.75 2.75 0 0 1-1.93-.825 2.636 2.636 0 0 1 0-3.737l8.277-8.102a.7.7 0 0 1 .975 0 .674.674 0 0 1 0 .954L6.9 15.326a1.325 1.325 0 0 0 0 1.859c.254.258.599.407.965.407h.02c.355 0 .7-.129.954-.377l8.358-8.171a3.32 3.32 0 0 0-.082-4.752c-1.36-1.292-3.544-1.253-4.864.08l-8.266 8.091a5.314 5.314 0 0 0 0 7.615c2.143 2.097 5.636 2.097 7.779 0l10.063-9.852a.7.7 0 0 1 .975 0 .674.674 0 0 1 0 .955l-10.063 9.85A6.93 6.93 0 0 1 7.875 23"/></g><defs><clipPath id="a"><path fill="currentColor" d="M0 0h24v24H0z"/></clipPath></defs></svg>
